X: 97
T:Mario Tardiff's Reel
C:Emile Benoit
M:C|
L:1/8
Q:120
Z:Gerry Strong
K:G
|:E2 EF GFGA|B2 AG FDDA,|D2 DE FEFG|ABAF BEEB,|E2 EF GFGA|Bcdf edBc|dBAF
DEFA|GFED E4:|
|:Beef gfed|Bcde dBAF|DEFA GFEF|GBAF BEEA|Beef gfed|Bcde dBAF|DEFA GFEF|
GBAF E4:|
<end>
<start>
